src/assets/tokens/beraETH.svg

<svg xmlns="http://www.w3.org/2000/svg" fill="none" viewBox="0 0 756 721"><path fill="#D0D0D0" d="M0 0h756v721H0z"/><path fill="url(#a)" fill-rule="evenodd" d="M346.062 691.6c91.782 0 179.804-36.432 244.704-101.282 64.899-64.851 101.359-152.806 101.359-244.518s-36.46-179.667-101.359-244.518C525.866 36.432 437.844 0 346.062 0c-91.781 0-179.803 36.432-244.703 101.282C36.46 166.133 0 254.088 0 345.8s36.46 179.667 101.359 244.518c64.9 64.85 152.922 101.282 244.703 101.282" clip-rule="evenodd"/><path fill="#fff" d="m202.457 364.819 143.616 84.968 143.369-84.968-143.369 202.293z"/><path fill="#F5EBE4" d="m202.457 364.819 143.616 84.968v117.325z"/><path fill="#fff" d="m346.073 418.171-143.616-84.968 143.616-226.005 143.616 226.005z"/><path fill="#F5EBE4" d="m346.073 418.171-143.616-84.968 143.616-226.005z"/><g clip-path="url(#b)"><rect width="323" height="322" x="430" y="399" fill="url(#c)" rx="161"/><path fill="#fff" d="M654.265 547.035a17 17 0 0 1-.551-2.361q-.091-.555-.213-1.104a55 55 0 0 0-.58-2.371v-.002c3.487-5.28 20.16-32.816 1.188-50.491-21.057-19.616-45.66 6.095-45.66 6.095l.076.115c-11.058-3.361-23.048-3.755-34.713-.116h-.002c-.144-.15-24.664-25.652-45.659-6.094-21.001 19.565 1.677 51.218 1.795 51.383v.002a16 16 0 0 0-.565 2.275c-2.272 13.545-17.738 17.725-17.738 41.319 0 23.593 16.18 43 49.206 43h13.554c.06.087 5.639 7.995 17.096 7.986 10.636-.008 17.66-7.918 17.721-7.986h12.931c33.026 0 49.206-18.951 49.206-43 0-21.971-13.413-27.108-17.091-38.65z"/></g><defs><linearGradient id="a" x1="692.125" x2=".525" y1="0" y2="692.125" gradientUnits="userSpaceOnUse"><stop offset=".265" stop-color="#DFBF0E"/><stop offset=".82" stop-color="#D98E1F"/></linearGradient><linearGradient id="c" x1="591.5" x2="591.5" y1="399" y2="721" gradientUnits="userSpaceOnUse"><stop stop-color="#714800"/><stop offset="1" stop-color="#BA7600"/></linearGradient><clipPath id="b"><rect width="323" height="322" x="430" y="399" fill="#fff" rx="161"/></clipPath></defs></svg>

<svg width="756" height="721" viewBox="0 0 756 721" fill="none" xmlns="http://www.w3.org/2000/svg">
<rect width="756" height="721" fill="#D0D0D0"/>
<path fill-rule="evenodd" clip-rule="evenodd" d="M346.062 691.6C437.844 691.6 525.866 655.168 590.766 590.318C655.665 525.467 692.125 437.512 692.125 345.8C692.125 254.088 655.665 166.133 590.766 101.282C525.866 36.4324 437.844 0 346.062 0C254.281 0 166.259 36.4324 101.359 101.282C36.46 166.133 0 254.088 0 345.8C0 437.512 36.46 525.467 101.359 590.318C166.259 655.168 254.281 691.6 346.062 691.6Z" fill="url(#paint0_linear_8022_104)"/>
<path d="M202.457 364.819L346.073 449.787L489.442 364.819L346.073 567.112L202.457 364.819Z" fill="white"/>
<path d="M202.457 364.819L346.073 449.787V567.112L202.457 364.819Z" fill="#F5EBE4"/>
<path d="M346.073 418.171L202.457 333.203L346.073 107.198L489.689 333.203L346.073 418.171Z" fill="white"/>
<path d="M346.073 418.171L202.457 333.203L346.073 107.198V418.171Z" fill="#F5EBE4"/>
<g clip-path="url(#clip0_8022_104)">
<rect x="430" y="399" width="323" height="322" rx="161" fill="url(#paint1_linear_8022_104)"/>
<path d="M654.265 547.035C654.019 546.264 653.847 545.473 653.714 544.674C653.653 544.304 653.582 543.936 653.501 543.57C653.326 542.775 653.131 541.985 652.921 541.199V541.197C656.408 535.917 673.081 508.381 654.109 490.706C633.052 471.09 608.449 496.801 608.449 496.801L608.525 496.916C597.467 493.555 585.477 493.161 573.812 496.8C573.811 496.8 573.81 496.8 573.81 496.8C573.666 496.65 549.146 471.148 528.151 490.706C507.15 510.271 529.828 541.924 529.946 542.089C529.946 542.089 529.946 542.09 529.946 542.091C529.705 542.835 529.51 543.594 529.381 544.366C527.109 557.911 511.643 562.091 511.643 585.685C511.643 609.278 527.823 628.685 560.849 628.685H574.4C574.4 628.685 574.401 628.685 574.403 628.685C574.463 628.772 580.042 636.68 591.499 636.671C602.135 636.663 609.159 628.753 609.22 628.685C609.22 628.685 609.22 628.685 609.223 628.685H622.151C655.177 628.685 671.357 609.734 671.357 585.685C671.357 563.714 657.944 558.577 654.266 547.035H654.265Z" fill="white"/>
</g>
<defs>
<linearGradient id="paint0_linear_8022_104" x1="692.125" y1="0" x2="0.525306" y2="692.125" gradientUnits="userSpaceOnUse">
<stop offset="0.265" stop-color="#DFBF0E"/>
<stop offset="0.82" stop-color="#D98E1F"/>
</linearGradient>
<linearGradient id="paint1_linear_8022_104" x1="591.5" y1="399" x2="591.5" y2="721" gradientUnits="userSpaceOnUse">
<stop stop-color="#714800"/>
<stop offset="1" stop-color="#BA7600"/>
</linearGradient>
<clipPath id="clip0_8022_104">
<rect x="430" y="399" width="323" height="322" rx="161" fill="white"/>
</clipPath>
</defs>
</svg>
